X: 41208
T: Trolley's
R: reel
M: 4/4
K: Amajor
ABGA F3 E|FFAc dcB(c|c)AGA F3 F/E/|DFAc BEGB|
ABGA FccB|c2 ec B3 B/c/|dFBd cEAc|1 BAGA F3 A:|2 BAGA Fcfg||
|:affe f3 c|dfab gefg|affe dad(e|e)BfB gBab|affe faB(c|
c2)cB AEAc|1 dFBd eAde|fAdf gBfg:|2 dFBd cEAc|BAGA F3 A||

